omega/mobile/images/sports/how-to.svg

<svg height="5.68889in" viewBox="0 0 512 512" width="5.68889in" xmlns="http://www.w3.org/2000/svg"><path d="m476 38v436h-309v-436zm-327 70v50 173 46c0 5.92 1.21 15.04-2 20 0 0-10.88-46-10.88-46s-20-84-20-84-20-84-20-84-14.12-59-14.12-59 65-37 65-37c3.27 5.05 2 14.93 2 21zm139 16.53c-23.1 17.88-17.81 52.36 7 65.68 6.66 3.57 14.44 5.49 22 4.5 26.99-3.51 43.56-32.07 31.24-56.71-2.2-4.39-4.68-8.35-8.33-11.7-10.56-9.72-21.33-10.35-34.91-9-6.39 1.21-11.8 3.2-17 7.23zm-223 64.47s11.28 36 11.28 36 28.74 94 28.74 94 15.98 53 15.98 53c-6.87-3.74-16.23-18.32-21.42-25 0 0-47.21-62-47.21-62s-14.93-20-14.93-20c-1.82-2.6-4.78-6.77-4.84-10-.06-3.01 6.48-16.4 8.18-20 0 0 22.22-46 22.22-46zm296 179.72c-2.4 1.34-5.94 3.82-8.69 2.17-2.74-1.65-2.3-6.14-2.31-8.89v-111c-.01-7.19-.96-16.92-5.11-22.96-8.56-12.47-30.03-11.72-42.89-7.69-21.98 6.89-39.82 24.97-45 47.65 0 0 31-16 31-16v128c.01 4.55-.02 7.6 1.55 12 6.41 18.02 25.49 18.79 41.45 15.33 22.95-4.98 43.77-25.43 49-48.33-5.78 1.69-13.53 6.65-19 9.72z"/></svg>

<?xml version="1.0" encoding="UTF-8" standalone="no"?>
<!DOCTYPE svg PUBLIC "-//W3C//DTD SVG 20010904//EN"
              "http://www.w3.org/TR/2001/REC-SVG-20010904/DTD/svg10.dtd">

<svg xmlns="http://www.w3.org/2000/svg"
     width="5.68889in" height="5.68889in"
     viewBox="0 0 512 512">
  <path id="Selection"
        fill="black"
        d="M 476.00,38.00
           C 476.00,38.00 476.00,474.00 476.00,474.00
             476.00,474.00 167.00,474.00 167.00,474.00
             167.00,474.00 167.00,38.00 167.00,38.00
             167.00,38.00 476.00,38.00 476.00,38.00 Z
           M 149.00,108.00
           C 149.00,108.00 149.00,158.00 149.00,158.00
             149.00,158.00 149.00,331.00 149.00,331.00
             149.00,331.00 149.00,377.00 149.00,377.00
             149.00,382.92 150.21,392.04 147.00,397.00
             147.00,397.00 136.12,351.00 136.12,351.00
             136.12,351.00 116.12,267.00 116.12,267.00
             116.12,267.00 96.12,183.00 96.12,183.00
             96.12,183.00 82.00,124.00 82.00,124.00
             82.00,124.00 147.00,87.00 147.00,87.00
             150.27,92.05 149.00,101.93 149.00,108.00 Z
           M 288.00,124.53
           C 264.90,142.41 270.19,176.89 295.00,190.21
             301.66,193.78 309.44,195.70 317.00,194.71
             343.99,191.20 360.56,162.64 348.24,138.00
             346.04,133.61 343.56,129.65 339.91,126.30
             329.35,116.58 318.58,115.95 305.00,117.30
             298.61,118.51 293.20,120.50 288.00,124.53 Z
           M 65.00,189.00
           C 65.00,189.00 76.28,225.00 76.28,225.00
             76.28,225.00 105.02,319.00 105.02,319.00
             105.02,319.00 121.00,372.00 121.00,372.00
             114.13,368.26 104.77,353.68 99.58,347.00
             99.58,347.00 52.37,285.00 52.37,285.00
             52.37,285.00 37.44,265.00 37.44,265.00
             35.62,262.40 32.66,258.23 32.60,255.00
             32.54,251.99 39.08,238.60 40.78,235.00
             40.78,235.00 63.00,189.00 63.00,189.00
             63.00,189.00 65.00,189.00 65.00,189.00 Z
           M 361.00,368.72
           C 358.60,370.06 355.06,372.54 352.31,370.89
             349.57,369.24 350.01,364.75 350.00,362.00
             350.00,362.00 350.00,251.00 350.00,251.00
             349.99,243.81 349.04,234.08 344.89,228.04
             336.33,215.57 314.86,216.32 302.00,220.35
             280.02,227.24 262.18,245.32 257.00,268.00
             257.00,268.00 288.00,252.00 288.00,252.00
             288.00,252.00 288.00,380.00 288.00,380.00
             288.01,384.55 287.98,387.60 289.55,392.00
             295.96,410.02 315.04,410.79 331.00,407.33
             353.95,402.35 374.77,381.90 380.00,359.00
             374.22,360.69 366.47,365.65 361.00,368.72 Z" />
</svg>
